!!!OTL: Wilhelmus van Nassouwe. (1568-70.)
!!!ARE: Europa, Mitteleuropa, Deutschland
!!!SCT: A0409A
!!!TXL: @@NLD
!!!YEM: Copyright 1995, estate of Helmut Schaffrath.
**kern	**text
*M4/4	*
*met(c)	*
*k[]	*
*C:ion	*
=1	=1
!LO:TX:a:t=jon.	!
2ryy	.
4ryy	.
{4g	Wil-
=2	=2
4cc	-hel-
4cc	-mus
4dd	van
4dd	Nas-
=3	=3
4ee	-sou-
8dd	-we
8ee	Ben
4ff	ick
4ee	van
=4	=4
4dd	duit-
4dd	-ſchen
!LO:TX:a:t=Mel. 1607	!
2cc}	bloet,}
=5	=5
{2r	.
4r	.
4g	Den
=6	=6
4cc-	va-
4cc	-der-
4dd	-land
4dd	ghe-
=7	=7
4ee	-trou-
8dd	-we
8ee	Blijf
4ff	ick
4ee	tot
=8	=8
4dd	in
4dd	den
2cc}	doet;}
=9	=9
{4r	.
4gg	Een
4gg	prin-
4gg	-ce
=10	=10
4gg	van
4ff	O-
4ee	-raen-
8dd	-gien,
8ee	Ben
=11	=11
4ff	ick
4ee	vry
4dd	on-
4cc	-ver-
=12	=12
2dd	-veert,
4r}	.
{4ee	Den
=13	=13
2cc	co-
4ee	-ning
2dd	van
=14-	=14-
.	.
4cc	Hiſpaengien,
4b/	.
8a	.
8g	heb
=15	=15
4a	ick
4cc	al-
4cc	-tijt
4b	ghe-
=16	=16
1cc;}	-eert.
==	==
!!!GTL: Einige historisch-politische Lieder
!!!AGN: Romanze, Ballade, Lied, Kriegslied
!! Mel. 1607
!!!ONB: ESAC (Essen Associative Code) Database: ALTDEU
!!!AMT: simple quadruple
!!!AIN: vox
!!!EED: Helmut Schaffrath
!!!EEV: 1.0
!!!AMD: Ionian
!!!URL-scan: https://rosdok.uni-rostock.de/mcrviewer/recordIdentifier/rosdok_ppn738218359/iview2/phys_0583.iview2?x=211.1906371744103&y=606.0474065169692&scale=0.7083010262257697&rotation=0&layout=singlePageLayout
!!!ENC: Anna Maria Matuszewska
!!!EEV: 2024/15/03
*-	*-
